X:1
T:Rondo Alla Turca
T:Rondo Alla Turca
T:from "Piano Sonata No.11 in A major, K.331/300i"
T:Wolfgang Amadeus Mozart (1756 - 1791)
C:Wolfgang Amadeus Mozart (1756 - 1791)
%%score { 1 | 2 } { 3 | 4 }
L:1/8
Q:1/4=132
M:2/4
K:F
V:1 treble transpose=-2 nm="2 B♭ Cornets"
V:2 treble transpose=-2 
V:3 bass nm="Piano"
V:4 bass 
V:1
[K:G]"^Allegreto."!p! (F/E/^D/E/ | G) z z2 | z2 (c/B/^A/B/ | f/e/^d/e/ f/e/d/e/ | g2) .e.g | %5
{^de} .f.e .d.e |{^de} .f.e .d.e |{^de} .f.e .d.^c | B2 :: .B.c | .d.d (e/d/c/B/) | A2 .B.c | %12
 .d.d (e/d/c/B/) | A2 .G.A | .B.B (c/B/A/G/) | F2 .G.A | .B.B (c/B/A/G/) | F2 (F/E/^D/E/ | %18
 G) z z2 | z2 (c/B/^A/B/ |!<(! f/e/^d/e/ f/e/d/e/!<)! |!f! g2)!p! .e.f | .g.f .e.^d | .e.B .c.A | %24
 G2 TF2({EF)} | E2 ::[K:E]!f! .e.f | g2 .e.f | .g.f .e.d | .c.d .e.f | .d.B .e.f | g2 .e.f | %32
 .g.f .e.d | .c.f .d.B | e2 :|[K:E]!p! (g/a/g/f/ | e/f/e/d/ c/e/d/c/ | ^B/c/d/B/ G/^A/B/G/ | %38
 c/^B/c/d/ e/d/e/f/ | g/^^f/g/f/ g/a/g/^f/ | e/f/e/d/ c/e/d/c/ | B/c/d/B/ G/^A/B/G/ | %42
 ^A/B/c/A/ ^^F/G/A/F/ | G2) || z2 | z4 | z4 | z4 | z4 | z4 | z4 | z4 | z2 |:!f! (B/A/G/F/ | %54
 E/F/G/A/ B/c/d/e/ | e/d/c/B/ B/A/G/F/ | E/F/G/A/ B/c/d/e/ | ^ef) (B/A/G/F/ | E/F/G/A/ B/c/d/e/ | %59
 e/d/c/B/ B/A/G/F/ | G/B/E/G/ F/A/D/F/ | E2) z2 | z4 | z4 | z4 | z4 | z4 | z4 | z4 | z2 :: %70
!f! .e.f | g2 .e.f | .g.f .e.d | .c.d .e.f | .d.B .e.f | g2 .e.f | .g.f .e.d | .c.f .d.B | e2 :: %79
[K:G]!p! (F/E/^D/E/ | G) z z2 | z2 (c/B/^A/B/ | f/e/^d/e/ f/e/d/e/ | g2) .e.g |{^de} .f.e .d.e | %85
{^de} .f.e .d.e |{^de} .f.e .d.^c | B2 :: .B.c | .d.d (e/d/c/B/) | A2 .B.c | .d.d (e/d/c/B/) | %92
 A2 .G.A | .B.B (c/B/A/G/) | F2 .G.A | .B.B (c/B/A/G/) | F2 (F/E/^D/E/ | G) z z2 | z2 (c/B/^A/B/ | %99
!<(! f/e/^d/e/ f/e/d/e/!<)! |!f! g2)!p! .e.f | .g.f .e.^d | .e.B .c.A | G2 TF2({EF)} | E2 :: %105
[K:E]!f!!f! !/!.e!/!.f | !//!g2 !/!.e!/!.f | !/!.g!/!.f !/!.e!/!.d | !/!.c!/!.d !/!.e!/!.f | %109
 !/!.d!/!.B !/!.e!/!.f | !//!g2 !/!.e!/!.f | !/!.g!/!.f !/!.e!/!.d | !/!.c!/!.f !/!.d!/!.B |1 %113
 e2 :|2 e2 g>g || g4 | g4 | (a/g/).f/.g/ (a/g/).f/.g/ | a4 |{/a} .g{/a}.g{/a} .g{/a}.g | (f3 b) | %121
 g4 | g4 | (a/g/).f/.g/ (a/g/).f/.g/ | a4 |{/a} g4 |{/g} .f{/g}.f{/g} .f{/g}.f | e2!p! g>g | %128
{Be} g4 | z4 | (a/g/).f/.g/ (a/g/).f/.g/ | a4 |{/a} .g{/a}.g{/a} .g{/a}.g | f2 z2 |!f! G4 | G4 | %136
 (A/G/).F/.G/ (A/G/).F/.G/ | A4 |{/A} G4 |{/G} .F{/G}.F{/G} .F{/G}.F | E3 .G | E3 .B | .E.G .E.B | %143
 .E2 .e2 | .e2 z2 |] %145
V:2
[K:G] z2 | z2!p! (A/G/F/G/ | B) z z2 | z2 (f/e/^d/e/ | g2) z2 | z .^c .B.c | z .^c .B.c | %7
 z .^c .B.^A | B2 :: .G.A | .B.B (c/B/A/G/) | (FD) .G.A | .B.B (c/B/A/G/) | F2 .E.F | %14
 .G.G (A/G/F/E/) | (^DB,) .E.F | .G.G (A/G/F/E/) | ^D2 z2 | z2 (A/G/F/G/ | B) z z2 | %20
 z2!<(! (f/e/^d/e/!<)! |!f! g2)!p! .E.F | .G.F .E.^D | .E.G .A.F | E2 T^D2({^CD)} | E2 :: %26
[K:E]!f! .E.F | G2 .E.F | .G.F .E.D | .C.D .E.F | .D.B, .E.F | G2 .E.F | .G.F .E.D | .C.F .D.B, | %34
 E2 :|[K:E] z2 | z4 | z4 | z4 | z4 | z4 | z4 | z4 | z2 ||!p! (g/a/g/f/ | e/f/e/d/ c/e/d/c/ | %46
 ^B/c/d/B/ G/^A/B/G/ | c/^B/c/d/ e/d/e/f/ | g/^^f/g/f/ g/a/g/^f/ | e/f/e/d/ c/e/d/c/ | %50
 B/c/d/B/ G/^A/B/G/ | ^A/B/c/A/ ^^F/G/A/F/ | G2) |: z2 | z4 | z4 | z4 | z4 | z4 | z4 | z4 | %61
 z2!p! (g/a/g/f/ | e/f/e/d/ c/e/d/c/ | ^B/c/d/B/ G/^A/B/G/ | c/^B/c/d/ e/d/e/f/ | %65
 g/^^f/g/f/ g/f/g/f/ | a/g/a/g/ a/g/a/g/ | a/g/f/e/ d/e/f/d/ | e/f/g/c/ ^B/c/d/B/ | c2) :: %70
!f! .E.F | G2 .E.F | .G.F .E.D | .C.D .E.F | .D.B, .E.F | G2 .E.F | .G.F .E.D | .C.F .D.B, | E2 :: %79
[K:G] z2 | z2!p! (A/G/F/G/ | B) z z2 | z2 (f/e/^d/e/ | g2) z2 | z .^c .B.c | z .^c .B.c | %86
 z .^c .B.^A | B2 :: .G.A | .B.B (c/B/A/G/) | (FD) .G.A | .B.B (c/B/A/G/) | F2 .E.F | %93
 .G.G (A/G/F/E/) | (^DB,) .E.F | .G.G (A/G/F/E/) | ^D2 z2 | z2 (A/G/F/G/ | B) z z2 | %99
 z2!<(! (f/e/^d/e/!<)! |!f! g2)!p! .E.F | .G.F .E.^D | .E.G .A.F | E2 T^D2({^CD)} | E2 :: %105
[K:E]!f! !/!.E!/!.F | !//!G2 !/!.E!/!.F | !/!.G!/!.F !/!.E!/!.D | !/!.C!/!.D !/!.E!/!.F | %109
 !/!.D!/!.B, !/!.E!/!.F | !//!G2 !/!.E!/!.F | !/!.G!/!.F !/!.E!/!.D | !/!.C!/!.F !/!.D!/!.B, |1 %113
 E2 :|2 E2 G>G || G4 | G4 | (A/G/).F/.G/ (A/G/).F/.G/ | A4 |{/A} .G{/A}.G{/A} .G{/A}.G | (F3 B) | %121
 G4 | G4 | (A/G/).F/.G/ (A/G/).F/.G/ | A4 |{/A} G4 |{/G} .F{/G}.F{/G} .F{/G}.F | E2 z2 | z4 | %129
!p!{Be} g4 | z2 (a/g/).f/.g/ | a4 | z4 | (f3 b) |!f! g4 | g4 | (a/g/).f/.g/ (a/g/).f/.g/ | a4 | %138
{/a} g4 |{/g} .f{/g}.f{/g} .f{/g}.f | e3 .g | e3 .b | .e.g .e.b | .e2 .E2 | .E2 z2 |] %145
V:3
 z2 |!p! x4 | x4 | x4 | x4 | x4 | x4 | x4 | A,2 :: z2 | x4 | C2 z2 | x4 | C2 z2 | x4 | A,2 z2 | %16
 x4 | A,2 z2 | x4 | x4 |!<(! x4!<)! |!f! x4!p! | x4 | x4 | .[D,D].[D,D] .[^C,^C].[C,C] | [D,D]2 :: %26
[K:D] z2 |!f!{D,F,A,} .D.D .D.D |{D,F,A,} .D.D .D.D |{G,,B,,D,} .G,.G,{^G,,B,,E,} .^G,.G, | %30
{A,,C,E,} .A,.A, .A,.A, |{D,F,A,} .D.D .D.D |{D,F,A,} .D.D .D.D | %33
{G,,B,,D,} .G,.G,{A,,C,E,} .A,.A, | [D,D]2 :|[K:D] z2 |!p! x4 | x4 | x4 | x4 | x4 | x4 | x4 | %43
 [A,C]2 || z2 | x4 | x4 | x4 | x4 | x4 | x4 | x4 | [A,C]2 |: z2 |!f! x2 x2 | x4 | x2 x2 | x4 | %58
 x2 x2 | x4 | [D,D][B,,B,] [G,,G,][A,,A,] | [D,,D,][D,D] z2 |!p! x4 | x4 | x4 | x4 | x4 | x4 | x4 | %69
 [F,B,D]2 :: z2 |!f!{D,F,A,} .D.D .D.D |{D,F,A,} .D.D .D.D |{G,,B,,D,} .G,.G,{^G,,B,,E,} .^G,.G, | %74
{A,,C,E,} .A,.A, .A,.A, |{D,F,A,} .D.D .D.D |{D,F,A,} .D.D .D.D | %77
{G,,B,,D,} .G,.G,{A,,C,E,} .A,.A, | [D,D]2 ::[K:F] z2 |!p! x4 | x4 | x4 | x4 | x4 | x4 | x4 | %87
 A,2 :: z2 | x4 | C2 z2 | x4 | C2 z2 | x4 | A,2 z2 | x4 | A,2 z2 | x4 | x4 |!<(! x4!<)! | %100
!f! x4!p! | x4 | x4 | .[D,D].[D,D] .[^C,^C].[C,C] | [D,D]2 ::[K:D] z2 |!f!{D,F,A,} .D.D .D.D | %107
{D,F,A,} .D.D .D.D |{G,,B,,D,} .G,.G,{^G,,B,,E,} .^G,.G, |{A,,C,E,} .A,.A, .A,.A, | %110
{D,F,A,} .D.D .D.D |{D,F,A,} .D.D .D.D |{G,,B,,D,} .G,.G,{A,,C,E,} .A,.A, |1 [D,D]2 :|2 %114
{D,F,A,} .D.D .D.D ||{D,F,A,} .D.D .D.D |{D,F,A,} .D.D .D.D |{D,F,A,} .D.D .D.D | %118
{G,,B,,D,} .G,.G, .G,.G, |{D,F,A,} .D.D .D.D |{A,,C,E,} .A,.A, .A,.A, |{D,F,A,} .D.D .D.D | %122
{D,F,A,} .D.D .D.D |{D,F,A,} .D.D .D.D |{G,,B,,D,} .G,.G, .G,.G, |{D,F,A,} .D.D .D.D | %126
{A,,C,E,} .A,.A, .A,.A, | D,/A,/F,/A,/!p! D,/A,/F,/A,/ | D,/A,/F,/A,/ D,/A,/F,/A,/ | %129
 D,/A,/F,/A,/ D,/A,/F,/A,/ | D,/A,/F,/A,/ D,/A,/F,/A,/ | D,/B,/G,/B,/ D,/B,/G,/B,/ | %132
 D,/A,/F,/A,/ D,/A,/F,/A,/ | A,,/A,/C,/A,/ A,,/A,/C,/A,/ |!f!{D,F,A,} .D.D .D.D | %135
{D,F,A,} .D.D .D.D |{D,F,A,} .D.D .D.D |{G,,B,,D,} .G,.G, .G,.G, |{D,F,A,} .D.D .D.D | %139
{A,,C,E,} .A,.A, .A,.A, |{D,F,A,} .D.D .D.D |{D,F,A,} .D.D .D.D |{D,F,A,} .D.D{D,F,A,} .D.D | %143
 .D2 .[A,,D,F,A,]2 | .[A,,D,F,A,]2 z2 |] %145
V:4
 z2 | ([D,,A,,D,][I:staff -1].[A,DFA]) .[A,DFA].[A,DFA] | %2
[I:staff +1] ([D,,A,,D,][I:staff -1].[A,DFA]) .[A,DFA].[A,DFA] | %3
[I:staff +1] .[D,,A,,D,][I:staff -1].[A,DFA][I:staff +1] .[D,,A,,D,][I:staff -1].[A,DFA] | %4
[I:staff +1] ([D,,A,,D,][I:staff -1].[A,DFA]) .[A,DFA].[A,DFA] | %5
[I:staff +1] ([A,,,E,,A,,][I:staff -1].[E,A,E]) .[E,A,E].[E,A,E] | %6
[I:staff +1] ([A,,,E,,A,,][I:staff -1].[E,A,E]) .[E,A,E].[E,A,E] | %7
[I:staff +1] .[A,,,E,,A,,][I:staff -1].[E,A,E][I:staff +1] .[E,,,E,,][I:staff -1].[E,E] | %8
[I:staff +1] [A,,,A,,]2 :: z2 | %10
 .[F,,,F,,][I:staff -1].[F,F][I:staff +1] .[A,,,A,,][I:staff -1].[A,A] |[I:staff +1] [C,,C,]2 z2 | %12
 .[F,,,F,,][I:staff -1].[F,F][I:staff +1] .[A,,,A,,][I:staff -1].[A,A] |[I:staff +1] [C,,C,]2 z2 | %14
 .[D,,,D,,][I:staff -1].[D,D][I:staff +1] .[F,,,F,,][I:staff -1].[F,F] | %15
[I:staff +1] [A,,,A,,]2 z2 | %16
 .[D,,,D,,][I:staff -1].[D,D][I:staff +1] .[F,,,F,,][I:staff -1].[F,F] | %17
[I:staff +1] [A,,,A,,]2 z2 | ([D,,A,,D,][I:staff -1].[A,DFA]) .[A,DFA].[A,DFA] | %19
[I:staff +1] ([D,,A,,D,][I:staff -1].[A,DFA]) .[A,DFA].[A,DFA] | %20
[I:staff +1] .[D,,A,,D,][I:staff -1].[A,DFA][I:staff +1] .[D,,A,,D,][I:staff -1].[A,DFA] | %21
[I:staff +1] ([C,,C,][I:staff -1].[_A,D_A]) .[A,DA].[A,DA] | %22
[I:staff +1] .[A,,,A,,][I:staff -1].[D,A,D][I:staff +1] .[G,,,G,,][I:staff -1].[E,B,E] | %23
[I:staff +1] .[F,,,F,,][I:staff -1].[D,A,D][I:staff +1] .[G,,,G,,][I:staff -1].[E,B,E] | %24
[I:staff +1] .[A,,,A,,].[A,,,A,,] .[A,,,A,,].[A,,,A,,] | [D,,,D,,]2 ::[K:D] z2 | %27
{D,,F,,A,,} .D,.D, .D,.D, |{D,,F,,A,,} .D,.D, .D,.D, | %29
{G,,,B,,,D,,} .G,,.G,,{^G,,,B,,,E,,} .^G,,.G,, |{A,,,C,,E,,} .A,,.A,, .A,,.A,, | %31
{D,,F,,A,,} .D,.D, .D,.D, |{D,,F,,A,,} .D,.D, .D,.D, |{G,,,B,,,D,,} .G,,.G,,{A,,,C,,E,,} .A,,.A,, | %34
 [D,,D,]2 :|[K:D] z2 | .[B,,,B,,][I:staff -1].[F,B,D] .[F,B,D].[F,B,D] | %37
[I:staff +1] .[C,,C,][I:staff -1].[F,CE] .[F,CE].[F,CE] | %38
[I:staff +1] .[B,,,B,,][I:staff -1].[F,B,D] .[F,B,D].[F,B,D] | %39
[I:staff +1] .[^A,,,^A,,][I:staff -1].[F,^A,C] .[F,A,C].[F,A,C] | %40
[I:staff +1] .[B,,,B,,][I:staff -1].[F,B,D] .[F,B,D].[F,B,D] | %41
[I:staff +1] .[C,,C,][I:staff -1].[F,A,C] .[F,A,C].[F,A,C] | %42
[I:staff +1] .[C,,C,][I:staff -1].[^G,B,C] .[G,B,C].[G,B,C] |[I:staff +1] .F,,2 || z2 | %45
 .[B,,,B,,][I:staff -1].[F,B,D] .[F,B,D].[F,B,D] | %46
[I:staff +1] .[C,,C,][I:staff -1].[F,CE] .[F,CE].[F,CE] | %47
[I:staff +1] .[B,,,B,,][I:staff -1].[F,B,D] .[F,B,D].[F,B,D] | %48
[I:staff +1] .[^A,,,^A,,][I:staff -1].[F,^A,C] .[F,A,C].[F,A,C] | %49
[I:staff +1] .[B,,,B,,][I:staff -1].[F,B,D] .[F,B,D].[F,B,D] | %50
[I:staff +1] .[C,,C,][I:staff -1].[F,A,C] .[F,A,C].[F,A,C] | %51
[I:staff +1] .[C,,C,][I:staff -1].[^G,B,C] .[G,B,C].[G,B,C] |[I:staff +1] F,,2 |: z2 | %54
 .[D,,D,][I:staff -1].[A,DF] .[A,DF].[A,DF] | %55
[I:staff +1] .[E,,E,][I:staff -1].[A,CG][I:staff +1] .[C,,C,][I:staff -1].[A,EG] | %56
[I:staff +1] .[D,,D,][I:staff -1].[A,DF] .[A,DF].[A,DF] | %57
[I:staff +1] .[A,,,A,,][I:staff -1].[A,CE] .[A,CE].[A,CE] | %58
[I:staff +1] .[D,,D,][I:staff -1].[A,DF] .[A,DF].[A,DF] | %59
[I:staff +1] .[E,,E,][I:staff -1].[A,CG][I:staff +1] .[C,,C,][I:staff -1].[A,EG] | %60
[I:staff +1] .D,,.B,,, .G,,,.A,,, | .D,,,.D,, z2 | %62
 .[B,,,B,,][I:staff -1].[F,B,D] .[F,B,D].[F,B,D] | %63
[I:staff +1] .[C,,C,][I:staff -1].[F,CE] .[F,CE].[F,CE] | %64
[I:staff +1] .[B,,,B,,][I:staff -1].[F,B,D] .[F,B,D].[F,B,D] | %65
[I:staff +1] .[F,,F,][I:staff -1].[F,CF] .[F,=CF].[F,B,F] | %66
[I:staff +1] .E,,[I:staff -1].[E,B,E] .[E,B,E].[E,B,E] | %67
[I:staff +1] .E,,[I:staff -1].[E,CE] .[E,CE].[E,CE] | %68
[I:staff +1] .F,,[I:staff -1].[F,B,D][I:staff +1] .[F,,,F,,][I:staff -1].[F,CE] | %69
[I:staff +1] [B,,,B,,]2 :: z2 |{D,,F,,A,,} .D,.D, .D,.D, |{D,,F,,A,,} .D,.D, .D,.D, | %73
{G,,,B,,,D,,} .G,,.G,,{^G,,,B,,,E,,} .^G,,.G,, |{A,,,C,,E,,} .A,,.A,, .A,,.A,, | %75
{D,,F,,A,,} .D,.D, .D,.D, |{D,,F,,A,,} .D,.D, .D,.D, |{G,,,B,,,D,,} .G,,.G,,{A,,,C,,E,,} .A,,.A,, | %78
 [D,,D,]2 ::[K:F] z2 | ([D,,A,,D,][I:staff -1].[A,DFA]) .[A,DFA].[A,DFA] | %81
[I:staff +1] ([D,,A,,D,][I:staff -1].[A,DFA]) .[A,DFA].[A,DFA] | %82
[I:staff +1] .[D,,A,,D,][I:staff -1].[A,DFA][I:staff +1] .[D,,A,,D,][I:staff -1].[A,DFA] | %83
[I:staff +1] ([D,,A,,D,][I:staff -1].[A,DFA]) .[A,DFA].[A,DFA] | %84
[I:staff +1] ([A,,,E,,A,,][I:staff -1].[E,A,E]) .[E,A,E].[E,A,E] | %85
[I:staff +1] ([A,,,E,,A,,][I:staff -1].[E,A,E]) .[E,A,E].[E,A,E] | %86
[I:staff +1] .[A,,,E,,A,,][I:staff -1].[E,A,E][I:staff +1] .[E,,,E,,][I:staff -1].[E,E] | %87
[I:staff +1] [A,,,A,,]2 :: z2 | %89
 .[F,,,F,,][I:staff -1].[F,F][I:staff +1] .[A,,,A,,][I:staff -1].[A,A] |[I:staff +1] [C,,C,]2 z2 | %91
 .[F,,,F,,][I:staff -1].[F,F][I:staff +1] .[A,,,A,,][I:staff -1].[A,A] |[I:staff +1] [C,,C,]2 z2 | %93
 .[D,,,D,,][I:staff -1].[D,D][I:staff +1] .[F,,,F,,][I:staff -1].[F,F] | %94
[I:staff +1] [A,,,A,,]2 z2 | %95
 .[D,,,D,,][I:staff -1].[D,D][I:staff +1] .[F,,,F,,][I:staff -1].[F,F] | %96
[I:staff +1] [A,,,A,,]2 z2 | ([D,,A,,D,][I:staff -1].[A,DFA]) .[A,DFA].[A,DFA] | %98
[I:staff +1] ([D,,A,,D,][I:staff -1].[A,DFA]) .[A,DFA].[A,DFA] | %99
[I:staff +1] .[D,,A,,D,][I:staff -1].[A,DFA][I:staff +1] .[D,,A,,D,][I:staff -1].[A,DFA] | %100
[I:staff +1] ([C,,C,][I:staff -1].[_A,D_A]) .[A,DA].[A,DA] | %101
[I:staff +1] .[A,,,A,,][I:staff -1].[D,A,D][I:staff +1] .[G,,,G,,][I:staff -1].[E,B,E] | %102
[I:staff +1] .[F,,,F,,][I:staff -1].[D,A,D][I:staff +1] .[G,,,G,,][I:staff -1].[E,B,E] | %103
[I:staff +1] .[A,,,A,,].[A,,,A,,] .[A,,,A,,].[A,,,A,,] | [D,,,D,,]2 ::[K:D] z2 | %106
{D,,F,,A,,} .D,.D, .D,.D, |{D,,F,,A,,} .D,.D, .D,.D, | %108
{G,,,B,,,D,,} .G,,.G,,{^G,,,B,,,E,,} .^G,,.G,, |{A,,,C,,E,,} .A,,.A,, .A,,.A,, | %110
{D,,F,,A,,} .D,.D, .D,.D, |{D,,F,,A,,} .D,.D, .D,.D, | %112
{G,,,B,,,D,,} .G,,.G,,{A,,,C,,E,,} .A,,.A,, |1 [D,,D,]2 :|2{D,,F,,A,,} .D,.D, .D,.D, || %115
{D,,F,,A,,} .D,.D, .D,.D, |{D,,F,,A,,} .D,.D, .D,.D, |{D,,F,,A,,} .D,.D, .D,.D, | %118
{G,,,B,,,D,,} .G,,.G,, .G,,.G,, |{D,,F,,A,,} .D,.D, .D,.D, |{A,,,C,,E,,} .A,,.A,, .A,,.A,, | %121
{D,,F,,A,,} .D,.D, .D,.D, |{D,,F,,A,,} .D,.D, .D,.D, |{D,,F,,A,,} .D,.D, .D,.D, | %124
{G,,,B,,,D,,} .G,,.G,, .G,,.G,, |{D,,F,,A,,} .D,.D, .D,.D, |{A,,,C,,E,,} .A,,.A,, .A,,.A,, | %127
!ped! D,,/A,,/F,,/A,,/!ped-up!!ped! D,,/A,,/F,,/A,,/ | D,,/A,,/F,,/A,,/ D,,/A,,/F,,/A,,/ | %129
 D,,/A,,/F,,/A,,/ D,,/A,,/F,,/A,,/ | D,,/A,,/F,,/A,,/ D,,/A,,/F,,/A,,/!ped-up! | %131
!ped! D,,/B,,/G,,/B,,/ D,,/B,,/G,,/B,,/!ped-up! |!ped! D,,/A,,/F,,/A,,/ D,,/A,,/F,,/A,,/!ped-up! | %133
!ped! A,,,/A,,/C,,/A,,/ A,,,/A,,/C,,/A,,/!ped-up! |{D,,F,,A,,} .D,.D, .D,.D, | %135
{D,,F,,A,,} .D,.D, .D,.D, |{D,,F,,A,,} .D,.D, .D,.D, |{G,,,B,,,D,,} .G,,.G,, .G,,.G,, | %138
{D,,F,,A,,} .D,.D, .D,.D, |{A,,,C,,E,,} .A,,.A,, .A,,.A,, |{D,,F,,A,,} .D,.D, .D,.D, | %141
{D,,F,,A,,} .D,.D, .D,.D, |{D,,F,,A,,} .D,.D,{D,,F,,A,,} .D,.D, | .[D,,D,]2 .[D,,,D,,]2 | %144
 .[D,,,D,,]2 z2 |] %145

